public/images/icons/device_3.svg

<svg width="19" height="15" viewBox="0 0 19 15" fill="none" xmlns="http://www.w3.org/2000/svg">
<path d="M2.195 7.93499L3.0875 8.82748L5.01499 6.90749L4.12999 6.01499L3.72499 5.60999C3.40249 5.28749 3.23 4.86749 3.23 4.40999C3.23 4.01249 3.365 3.65249 3.59749 3.36749C3.91249 2.97 4.39249 2.715 4.93249 2.715C5.38999 2.715 5.80999 2.89499 6.13999 3.21749L6.53749 3.59999L7.42999 4.49999L9.36498 2.58L8.46499 1.6875L8.05999 1.2975C7.25749 0.494999 6.15499 0 4.93249 0C2.48 0 0.5 1.98 0.5 4.41749C0.5 5.02499 0.62 5.60249 0.844999 6.13499C1.07 6.66749 1.3925 7.13999 1.7975 7.53749L2.195 7.93499Z" fill="#676D73"/>
<path d="M6.61288 9.16487L9.36538 6.42737L7.43038 4.49988L5.01539 6.90737L3.08789 8.82737L4.12289 9.86987L5.01539 10.7549L5.94539 9.82487" fill="#464C52"/>
<path d="M11.2851 13.1701L15.6351 8.82759L13.7001 6.90759L9.35763 11.2426L6.94263 8.83509L5.01514 10.7551L7.43013 13.1701L7.42263 13.1776L9.35763 15.0001L11.2926 13.1701H11.2851Z" fill="#282B2E"/>
<path d="M16.9179 7.53748C17.8179 6.63748 18.3354 5.25748 18.1929 3.86249C17.9829 1.74749 16.2279 0.157492 14.0979 0.0149926C12.7554 -0.0750073 11.5254 0.427492 10.6554 1.29749L7.43042 4.49998L9.35792 6.42748L12.5829 3.21749C12.9729 2.83499 13.5129 2.65499 14.0679 2.74499C14.7879 2.85749 15.3729 3.44999 15.4704 4.16999C15.5454 4.70998 15.3654 5.23498 14.9829 5.61748L13.7004 6.90748L15.6354 8.82748L16.9179 7.53748Z" fill="#181A1C"/>
</svg>

<svg xmlns="http://www.w3.org/2000/svg" width="19" height="15" fill="none"><path fill="#676D73" d="m2.195 7.935.893.892 1.927-1.92-.885-.892-.405-.405a1.672 1.672 0 0 1-.495-1.2c0-.398.135-.758.367-1.043a1.7 1.7 0 0 1 1.335-.652c.458 0 .878.18 1.208.502l.397.383.893.9 1.935-1.92-.9-.893-.405-.39A4.404 4.404 0 0 0 4.932 0 4.424 4.424 0 0 0 .845 6.135c.225.532.548 1.005.953 1.402l.397.398Z"/><path fill="#464C52" d="m6.613 9.165 2.752-2.738L7.43 4.5 5.015 6.907l-1.927 1.92L4.123 9.87l.892.885.93-.93"/><path fill="#282B2E" d="m11.285 13.17 4.35-4.342-1.935-1.92-4.342 4.335-2.415-2.408-1.928 1.92L7.43 13.17l-.007.008L9.358 15l1.935-1.83h-.008Z"/><path fill="#181A1C" d="M16.918 7.537c.9-.9 1.417-2.28 1.275-3.675-.21-2.115-1.965-3.705-4.095-3.847a4.424 4.424 0 0 0-3.443 1.282L7.43 4.5l1.928 1.927 3.225-3.21c.39-.382.93-.562 1.485-.472.72.112 1.305.705 1.402 1.425a1.698 1.698 0 0 1-.487 1.447L13.7 6.907l1.935 1.92 1.283-1.29Z"/></svg>
